svgs/solid/border-right.svg

<svg xmlns="http://www.w3.org/2000/svg" viewBox="0 0 448 512"><!--! Font Awesome Pro 6.0.0-alpha3 by @fontawesome - https://fontawesome.com License - https://fontawesome.com/license (Commercial License) --><path d="M240 224h-32C199.1 224 192 231.1 192 240v32C192 280.9 199.1 288 208 288h32C248.9 288 256 280.9 256 272v-32C256 231.1 248.9 224 240 224zM336 224h-32C295.1 224 288 231.1 288 240v32C288 280.9 295.1 288 304 288h32C344.9 288 352 280.9 352 272v-32C352 231.1 344.9 224 336 224zM144 224h-32C103.1 224 96 231.1 96 240v32C96 280.9 103.1 288 112 288h32C152.9 288 160 280.9 160 272v-32C160 231.1 152.9 224 144 224zM240 416h-32C199.1 416 192 423.1 192 432v32C192 472.9 199.1 480 208 480h32c8.875 0 16-7.125 16-16v-32C256 423.1 248.9 416 240 416zM336 416h-32c-8.875 0-16 7.125-16 16v32c0 8.875 7.125 16 16 16h32c8.875 0 16-7.125 16-16v-32C352 423.1 344.9 416 336 416zM240 320h-32C199.1 320 192 327.1 192 336v32C192 376.9 199.1 384 208 384h32c8.875 0 16-7.125 16-16v-32C256 327.1 248.9 320 240 320zM240 128h-32C199.1 128 192 135.1 192 144v32C192 184.9 199.1 192 208 192h32C248.9 192 256 184.9 256 176v-32C256 135.1 248.9 128 240 128zM144 416h-32C103.1 416 96 423.1 96 432v32C96 472.9 103.1 480 112 480h32C152.9 480 160 472.9 160 464v-32C160 423.1 152.9 416 144 416zM240 32h-32C199.1 32 192 39.12 192 48v32C192 88.88 199.1 96 208 96h32C248.9 96 256 88.88 256 80v-32C256 39.12 248.9 32 240 32zM336 32h-32C295.1 32 288 39.12 288 48v32C288 88.88 295.1 96 304 96h32C344.9 96 352 88.88 352 80v-32C352 39.12 344.9 32 336 32zM48 224h-32C7.125 224 0 231.1 0 240v32C0 280.9 7.125 288 16 288h32C56.88 288 64 280.9 64 272v-32C64 231.1 56.88 224 48 224zM48 416h-32C7.125 416 0 423.1 0 432v32C0 472.9 7.125 480 16 480h32C56.88 480 64 472.9 64 464v-32C64 423.1 56.88 416 48 416zM48 320h-32C7.125 320 0 327.1 0 336v32C0 376.9 7.125 384 16 384h32C56.88 384 64 376.9 64 368v-32C64 327.1 56.88 320 48 320zM48 128h-32C7.125 128 0 135.1 0 144v32C0 184.9 7.125 192 16 192h32C56.88 192 64 184.9 64 176v-32C64 135.1 56.88 128 48 128zM48 32h-32C7.125 32 0 39.12 0 48v32C0 88.88 7.125 96 16 96h32C56.88 96 64 88.88 64 80v-32C64 39.12 56.88 32 48 32zM144 32h-32C103.1 32 96 39.12 96 48v32C96 88.88 103.1 96 112 96h32C152.9 96 160 88.88 160 80v-32C160 39.12 152.9 32 144 32zM416 32c-17.67 0-32 14.33-32 31.1V448C384 465.7 398.3 480 416 480s32-14.33 32-31.1V63.1C448 46.33 433.7 32 416 32z"/></svg>

<svg xmlns="http://www.w3.org/2000/svg" viewBox="0 0 448 512"><path d="M240 224h-32a16 16 0 0 0-16 16v32a16 16 0 0 0 16 16h32a16 16 0 0 0 16-16v-32a16 16 0 0 0-16-16zm96 0h-32a16 16 0 0 0-16 16v32a16 16 0 0 0 16 16h32a16 16 0 0 0 16-16v-32a16 16 0 0 0-16-16zm-192 0h-32a16 16 0 0 0-16 16v32a16 16 0 0 0 16 16h32a16 16 0 0 0 16-16v-32a16 16 0 0 0-16-16zm96 192h-32a16 16 0 0 0-16 16v32a16 16 0 0 0 16 16h32a16 16 0 0 0 16-16v-32a16 16 0 0 0-16-16zm96 0h-32a16 16 0 0 0-16 16v32a16 16 0 0 0 16 16h32a16 16 0 0 0 16-16v-32a16 16 0 0 0-16-16zm-96-96h-32a16 16 0 0 0-16 16v32a16 16 0 0 0 16 16h32a16 16 0 0 0 16-16v-32a16 16 0 0 0-16-16zm0-192h-32a16 16 0 0 0-16 16v32a16 16 0 0 0 16 16h32a16 16 0 0 0 16-16v-32a16 16 0 0 0-16-16zm-96 288h-32a16 16 0 0 0-16 16v32a16 16 0 0 0 16 16h32a16 16 0 0 0 16-16v-32a16 16 0 0 0-16-16zm96-384h-32a16 16 0 0 0-16 16v32a16 16 0 0 0 16 16h32a16 16 0 0 0 16-16V48a16 16 0 0 0-16-16zm96 0h-32a16 16 0 0 0-16 16v32a16 16 0 0 0 16 16h32a16 16 0 0 0 16-16V48a16 16 0 0 0-16-16zM48 224H16a16 16 0 0 0-16 16v32a16 16 0 0 0 16 16h32a16 16 0 0 0 16-16v-32a16 16 0 0 0-16-16zm0 192H16a16 16 0 0 0-16 16v32a16 16 0 0 0 16 16h32a16 16 0 0 0 16-16v-32a16 16 0 0 0-16-16zm0-96H16a16 16 0 0 0-16 16v32a16 16 0 0 0 16 16h32a16 16 0 0 0 16-16v-32a16 16 0 0 0-16-16zm0-192H16a16 16 0 0 0-16 16v32a16 16 0 0 0 16 16h32a16 16 0 0 0 16-16v-32a16 16 0 0 0-16-16zm0-96H16A16 16 0 0 0 0 48v32a16 16 0 0 0 16 16h32a16 16 0 0 0 16-16V48a16 16 0 0 0-16-16zm96 0h-32a16 16 0 0 0-16 16v32a16 16 0 0 0 16 16h32a16 16 0 0 0 16-16V48a16 16 0 0 0-16-16zm288 0h-32a16 16 0 0 0-16 16v416a16 16 0 0 0 16 16h32a16 16 0 0 0 16-16V48a16 16 0 0 0-16-16z"/></svg>
